dist/svg/flag-o.svg

<svg width="16" height="16" viewBox="0 0 16 16" fill="rgb(34, 34, 34)" xmlns="http://www.w3.org/2000/svg"><title>flag-o</title><path d="M3.66902 1.206C4.97502 1.269 6.17302 1.683 7.18602 2.353L7.16002 2.337C7.53902 2.591 10.61 4.594 13.195 4.594C13.198 4.594 13.201 4.594 13.204 4.594C13.409 4.594 13.611 4.581 13.81 4.556L13.786 4.558C13.143 6.73 11.081 7.989 8.00702 8C7.41502 7.996 4.31202 7.552 3.56802 7.552C3.53202 7.551 3.48902 7.55 3.44602 7.55C2.92502 7.55 2.42802 7.65 1.97202 7.831L1.99902 7.822V1.5H2.00602C2.49702 1.314 3.06502 1.206 3.65802 1.206C3.66102 1.206 3.66602 1.206 3.66902 1.206ZM3.66902 0.206002C3.01802 0.208002 2.39202 0.315002 1.80802 0.513002L1.84902 0.501002H0.999023V16.001H1.99902V9.001C2.36602 8.714 2.83302 8.541 3.34202 8.541C3.42202 8.541 3.50002 8.545 3.57802 8.554L3.56802 8.553C4.89702 8.553 6.66502 8.991 7.99902 9.001C12.296 8.985 14.999 6.686 14.999 3.001C14.543 3.372 13.955 3.597 13.314 3.597C13.272 3.597 13.23 3.596 13.188 3.594H13.194C10.771 3.594 7.68902 1.488 7.68902 1.488C6.55102 0.742002 5.17102 0.273002 3.68602 0.206002L3.66902 0.205002V0.206002Z" fill="rgb(34, 34, 34)" fill-opacity="1.00"/></svg>

<!-- Generated by Trend Micro Style Portal -->
<svg version="1.1" xmlns="http://www.w3.org/2000/svg" width="16" height="16" viewBox="0 0 16 16">
  <title>flag-o</title>
  <path fill="rgb(34,34,34)" d="M3.669 1.206c1.306 0.063 2.504 0.477 3.517 1.147l-0.026-0.016c0.379 0.254 3.45 2.257 6.035 2.257 0.003 0 0.006 0 0.009 0 0.205 0 0.407-0.013 0.606-0.038l-0.024 0.002c-0.643 2.172-2.705 3.431-5.779 3.442-0.592-0.004-3.695-0.448-4.439-0.448-0.036-0.001-0.079-0.002-0.122-0.002-0.521 0-1.018 0.1-1.474 0.281l0.027-0.009v-6.322h0.007c0.491-0.186 1.059-0.294 1.652-0.294 0.003 0 0.007 0 0.010 0h-0.001zM3.669 0.206c-0.651 0.002-1.277 0.109-1.861 0.307l0.041-0.012h-0.85v15.5h1v-7c0.367-0.287 0.834-0.46 1.343-0.46 0.080 0 0.158 0.004 0.236 0.013l-0.010-0.001c1.329 0 3.097 0.438 4.431 0.448 4.297-0.016 7-2.315 7-6-0.456 0.371-1.044 0.596-1.685 0.596-0.042 0-0.084-0.001-0.126-0.003l0.006 0c-2.423 0-5.505-2.106-5.505-2.106-1.138-0.746-2.518-1.215-4.003-1.282l-0.017-0.001z"></path>
</svg>
